X:1
T:Winchester (Croft), LM
T:Winchester (Croft), LM
T:William Croft (1678-1727)
T:Public Domain Courtesy of the Cyber Hymnal™
C:William Croft (1678-1727)
Z:Public Domain
Z:Courtesy of the Cyber Hymnal™
%%score 1 2 3 4
L:1/8
M:3/4
K:C
V:1 treble 
V:2 treble 
V:3 treble 
V:4 bass 
V:1
 c2 | G4 c2 | c4 c2 | (c2 G2) G2 | (G>F) E2 G2 | G4 G2 | G4 (Gd) | (c2 B2) A2 | B4 (Bd) | c4 B2 | %10
 c4 G2 | (A3 B) c2 | (c2 B2) c2 | c4 c2 | c4 c2 | c4 B2 | c4 |] %17
V:2
 E2 | E4 G2 | F4 F2 | E4 D2 | (C>B,) C2 C2 | B,4 C2 | B,4 D2 | (E2 D2) D2 | D4 G2 | G4 G2 | G4 G2 | %11
 (F3 G) G2 | G4 (G>F) | (E3 G) F2 | E4 (E>F) | G4 F2 | E4 |] %17
V:3
 G2 | c4 G2 | A4 A2 | G4 F2 | (E>D) C2 E2 | F4 E2 | D4 G2 | (A2 G2) ^F2 | G4 G2 | c4 d2 | e4 c2 | %11
 f4 e2 | (e2 d2) (e>d) | (c3 B) A2 | G4 (c>d) | e4 d2 | c4 |] %17
V:4
 C,2 | C,4 E,2 | F,4 F,2 | G,4 G,,2 | C,4 C,2 | D,4 C,2 | G,4 C,2 | (C,2 D,2) D,2 | G,4 (G,>F,) | %9
 E,4 G,2 | C4 E,2 | D,4 (C,E,) | G,4 C,2 | C,4 C,2 | C,4 A,2 | G,4 G,,2 | C,4 |] %17

